X:1
T:Emperor Waltz
C:Johann Strauss II
M:3/4
L:1/4
Q:1/4=168
K:G
% Main Waltz Theme (Op. 437)
B | d c B | A G2 | B c d | d3 | G A B | c B A | G2 B | G3 |
  d c B | A G2 | c d c | B A G | B c d | d c B | A2 d | G3 |]
